X: 53
T:Maiden's Dream,The. HS.53
M:6/8
L:1/8
Q:120
S:Henry Stables MS,Cumbria,late19thC
R:Jig
O:Walthwaite,nr.Ambleside.
A:England
N:Repeats as marked,please yourself
Z:vmp.Chris Partington
K:Bb
d/e/|f2bd2e|g2fd2d|f2ec2c|g2fd2e|!
f2bd2e|g2fd2d|f2ee2A|B3-B2||!
d|f2ec2c|g2fd2d|f2ec2c|g2fd2e|!
f2bd2e|g2fd2d|f2ee2A|B3-B2||!
f|b2ab2g|f2dB2d|e2dc2B|ABcF2f|!
b2ab2g|f2dB2d|f2ee2A|B3-B2:||
